X: 40924
T: Trip To Bantry, The
R: jig
M: 6/8
K: Adorian
G|:EAA Bcd|eaf ged|edB cBA|B2A GED|
EAA Bcd|eaf g2e|dge dBG|1 EAA A2G:|2 EAA ABd||
|:e2a age|dBd g2a|age edB|BAB GED|
[1e2a age|dBd g2a|age dBG|EAA ABd:|
[2EAA Bcd|eaf g2e|dge dBG|EAA A2||

